icons/bar-chart-box-line.svg

<svg viewBox="0 0 24 24" fill="currentColor" xmlns="http://www.w3.org/2000/svg">
    <path d="M3 3H21C21.5523 3 22 3.44772 22 4V20C22 20.5523 21.5523 21 21 21H3C2.44772 21 2 20.5523 2 20V4C2 3.44772 2.44772 3 3 3ZM4 5V19H20V5H4ZM7 13H9V17H7V13ZM11 7H13V17H11V7ZM15 10H17V17H15V10Z"/>
</svg>

<svg xmlns="http://www.w3.org/2000/svg" viewBox="0 0 24 24">
    <g>
        <path fill="none" d="M0 0h24v24H0z"/>
        <path d="M3 3h18a1 1 0 0 1 1 1v16a1 1 0 0 1-1 1H3a1 1 0 0 1-1-1V4a1 1 0 0 1 1-1zm1 2v14h16V5H4zm3 8h2v4H7v-4zm4-6h2v10h-2V7zm4 3h2v7h-2v-7z"/>
    </g>
</svg>
